Hatter-kde/actions/22/view-calendar-birthday.svg

<svg xmlns="http://www.w3.org/2000/svg" viewBox="0 0 22 22">
  <defs id="defs3051">
    <style type="text/css" id="current-color-scheme">
      .ColorScheme-Text {
        color:#363636;
      }
      </style>
  </defs>
 <path 
     style="fill:currentColor;fill-opacity:1;stroke:none" 
     d="M 3.7070312 3 C 4.1604012 3.0923 4.5 3.4912263 4.5 3.9726562 C 4.5 4.2614563 4.3751475 4.5181287 4.1796875 4.6992188 C 4.0702975 4.5696287 4.0039062 4.4043731 4.0039062 4.2207031 C 4.0039062 4.1803431 4.005625 4.1425166 4.015625 4.1035156 C 3.712915 4.2733656 3.5078125 4.5917337 3.5078125 4.9648438 C 3.5078125 5.5151338 3.94971 5.9589844 4.5 5.9589844 C 5.05008 5.9589844 5.4941406 5.5151337 5.4941406 4.9648438 C 5.4941406 3.9333338 4.7110213 3.10135 3.7070312 3 z M 7.7070312 3 C 8.1604012 3.0923 8.5 3.4912263 8.5 3.9726562 C 8.5 4.2614563 8.3751485 4.5181287 8.1796875 4.6992188 C 8.0702975 4.5696287 8.0039062 4.4043731 8.0039062 4.2207031 C 8.0039062 4.1803431 8.005625 4.1425166 8.015625 4.1035156 C 7.712915 4.2733656 7.5078125 4.5917337 7.5078125 4.9648438 C 7.5078125 5.5151337 7.949709 5.9589844 8.5 5.9589844 C 9.05008 5.9589844 9.4941406 5.5151338 9.4941406 4.9648438 C 9.4941406 3.9333338 8.7110213 3.10135 7.7070312 3 z M 12.707031 3 C 13.160401 3.0923 13.5 3.4912263 13.5 3.9726562 C 13.5 4.2614563 13.375146 4.5181288 13.179688 4.6992188 C 13.070297 4.5696287 13.003906 4.4043731 13.003906 4.2207031 C 13.003906 4.1803431 13.005625 4.1425166 13.015625 4.1035156 C 12.712915 4.2733656 12.507814 4.5917337 12.507812 4.9648438 C 12.507812 5.5151338 12.94971 5.9589844 13.5 5.9589844 C 14.05008 5.9589844 14.494141 5.5151338 14.494141 4.9648438 C 14.494141 3.9333338 13.711021 3.10135 12.707031 3 z M 16.707031 3 C 17.160401 3.0923 17.5 3.4912263 17.5 3.9726562 C 17.5 4.2614563 17.375146 4.5181288 17.179688 4.6992188 C 17.070297 4.5696287 17.003906 4.4043731 17.003906 4.2207031 C 17.003906 4.1803431 17.005625 4.1425166 17.015625 4.1035156 C 16.712915 4.2733656 16.507812 4.5917337 16.507812 4.9648438 C 16.507812 5.5151337 16.94971 5.9589844 17.5 5.9589844 C 18.05008 5.9589844 18.494141 5.5151337 18.494141 4.9648438 C 18.494141 3.9333338 17.711021 3.10135 16.707031 3 z M 4 7 L 4 9 L 3 9 L 3 10 L 3 14 L 3 15 L 3 18 L 3 19 L 19 19 L 19 18 L 19 15 L 19 14 L 19 10 L 19 9 L 18 9 L 18 7 L 17 7 L 17 9 L 14 9 L 14 7 L 13 7 L 13 9 L 9 9 L 9 7 L 8 7 L 8 9 L 5 9 L 5 7 L 4 7 z M 4 10 L 18 10 L 18 14 L 17.455078 14 C 16.095248 14 15 12.904752 15 11.544922 L 15 11 L 14 11 L 14 11.544922 C 14 12.904752 12.904752 14 11.544922 14 L 10.455078 14 C 9.0952482 14 8 12.904752 8 11.544922 L 8 11 L 7 11 L 7 11.544922 C 7 12.904753 5.9047529 14 4.5449219 14 L 4 14 L 4 10 z M 7.5 13.658203 C 8.036219 14.467346 8.952476 15 10 15 L 12 15 C 13.04752 15 13.96378 14.467353 14.5 13.658203 C 15.03622 14.467353 15.95248 15 17 15 L 18 15 L 18 16 L 4 16 L 4 15 L 5 15 C 6.047521 15 6.963781 14.467346 7.5 13.658203 z M 4 17 L 18 17 L 18 18 L 4 18 L 4 17 z "
	 class="ColorScheme-Text"
     />
</svg>

<?xml version="1.0" encoding="UTF-8"?>
<svg viewBox="0 0 22 22" xmlns="http://www.w3.org/2000/svg">
 <defs id="defs3051">
  <style id="current-color-scheme" type="text/css">.ColorScheme-Text {
        color:#363636;
      }</style>
 </defs>
 <path class="ColorScheme-Text" d="m3.707 3c0.45337 0.0923 0.79297 0.49123 0.79297 0.97266 0 0.2888-0.12485 0.54547-0.32031 0.72656-0.10939-0.12959-0.17578-0.29485-0.17578-0.47852 0-0.04036 0.0017188-0.078186 0.011719-0.11719-0.30271 0.16985-0.50781 0.48822-0.50781 0.86133 0 0.55029 0.4419 0.99414 0.99219 0.99414 0.55008 0 0.99414-0.44385 0.99414-0.99414 0-1.0315-0.78312-1.8635-1.7871-1.9648zm4 0c0.45337 0.0923 0.79297 0.49123 0.79297 0.97266 0 0.2888-0.12485 0.54547-0.32031 0.72656-0.10939-0.12959-0.17578-0.29485-0.17578-0.47852 0-0.04036 0.0017188-0.078186 0.011719-0.11719-0.30271 0.16985-0.50781 0.48822-0.50781 0.86133 0 0.55029 0.4419 0.99414 0.99219 0.99414 0.55008 0 0.99414-0.44385 0.99414-0.99414 0-1.0315-0.78312-1.8635-1.7871-1.9648zm5 0c0.45337 0.0923 0.79297 0.49123 0.79297 0.97266 0 0.2888-0.12485 0.54547-0.32031 0.72656-0.10939-0.12959-0.17578-0.29485-0.17578-0.47852 0-0.04036 0.001719-0.078186 0.011719-0.11719-0.30271 0.16985-0.50781 0.48822-0.50781 0.86133 0 0.55029 0.4419 0.99414 0.99219 0.99414 0.55008 0 0.99414-0.44385 0.99414-0.99414 0-1.0315-0.78312-1.8635-1.7871-1.9648zm4 0c0.45337 0.0923 0.79297 0.49123 0.79297 0.97266 0 0.2888-0.12485 0.54547-0.32031 0.72656-0.10939-0.12959-0.17578-0.29485-0.17578-0.47852 0-0.04036 0.001719-0.078186 0.011719-0.11719-0.30271 0.16985-0.50781 0.48822-0.50781 0.86133 0 0.55029 0.4419 0.99414 0.99219 0.99414 0.55008 0 0.99414-0.44385 0.99414-0.99414 0-1.0315-0.78312-1.8635-1.7871-1.9648zm-12.707 4v2h-1v1 4 1 3 1h16v-1-3-1-4-1h-1v-2h-1v2h-3v-2h-1v2h-4v-2h-1v2h-3v-2h-1zm0 3h14v4h-0.54492c-1.3598 0-2.4551-1.0952-2.4551-2.4551v-0.54492h-1v0.54492c0 1.3598-1.0952 2.4551-2.4551 2.4551h-1.0898c-1.3598 0-2.4551-1.0952-2.4551-2.4551v-0.54492h-1v0.54492c0 1.3598-1.0952 2.4551-2.4551 2.4551h-0.54492v-4zm3.5 3.6582c0.53622 0.80914 1.4525 1.3418 2.5 1.3418h2c1.0475 0 1.9638-0.53265 2.5-1.3418 0.53622 0.80915 1.4525 1.3418 2.5 1.3418h1v1h-14v-1h1c1.0475 0 1.9638-0.53265 2.5-1.3418zm-3.5 3.3418h14v1h-14v-1z" fill="currentColor"/>
</svg>
